source/img/inline/social/git.svg

<svg width="46" height="46" viewBox="0 0 46 46" fill="none" xmlns="http://www.w3.org/2000/svg">
<rect x="0.227051" y="0.509155" width="45.0321" height="45.0321" fill="#ADADB9"/>
<path d="M20.1624 32.7567C20.1624 32.9666 20.0892 33.1419 19.9426 33.2819C22.3597 33.3297 27.1229 33.3967 26.8392 33.2819C26.5554 33.1672 26.5655 32.8836 26.606 32.7562V29.0608C26.606 27.9282 26.3129 27.0991 25.7269 26.5739C26.3694 26.5038 26.9471 26.3984 27.4602 26.2582C27.973 26.1179 28.5031 25.8903 29.0499 25.575C29.5966 25.2599 30.0533 24.8717 30.42 24.4103C30.7863 23.9488 31.0849 23.3362 31.3159 22.5712C31.5466 21.8062 31.6626 20.9278 31.6626 19.9353C31.6626 18.5225 31.217 17.3197 30.3264 16.3271C30.7437 15.2647 30.6985 14.0737 30.1914 12.7542C29.8756 12.649 29.4186 12.7133 28.8211 12.9467C28.2239 13.1803 27.705 13.4372 27.2656 13.7175L26.623 14.1377C25.5742 13.8342 24.4918 13.6824 23.3757 13.6824C22.2597 13.6824 21.1774 13.8342 20.1287 14.1377C19.9483 14.0095 19.7089 13.8514 19.41 13.6648C19.1111 13.4782 18.6405 13.2531 17.9979 12.9904C17.3553 12.7278 16.8705 12.6488 16.5435 12.754C16.0474 14.0735 16.008 15.2645 16.4252 16.3269C15.5346 17.3195 15.0891 18.522 15.0891 19.9351C15.0891 20.9276 15.2047 21.8033 15.4358 22.5624C15.6667 23.3212 15.9627 23.9344 16.3235 24.4015C16.6841 24.8684 17.1379 25.2597 17.6849 25.5748C18.2316 25.8904 18.7616 26.118 19.2744 26.2582C19.7875 26.3983 20.3652 26.5036 21.0077 26.5736C20.5569 26.9938 20.2807 27.5951 20.1792 28.3778C19.9423 28.4945 19.6887 28.5822 19.4183 28.6407C19.1476 28.6987 18.8263 28.7279 18.4543 28.7279C18.0824 28.7279 17.713 28.6026 17.3468 28.3515C16.9802 28.1004 16.6676 27.7355 16.4082 27.2567C16.1939 26.8832 15.9206 26.5796 15.588 26.3461C15.2553 26.1125 14.9764 25.9727 14.7509 25.9259L14.4128 25.8735C14.176 25.8735 14.0127 25.8991 13.9224 25.9518C13.8321 26.0045 13.804 26.0717 13.8379 26.1536C13.8717 26.2354 13.9223 26.3171 13.99 26.3988C14.0577 26.4804 14.1309 26.5508 14.2098 26.6091L14.3282 26.6969C14.5762 26.8137 14.8213 27.0354 15.0638 27.3624C15.3062 27.6892 15.4837 27.9872 15.5964 28.2556L15.7655 28.6586C15.9121 29.102 16.1601 29.4612 16.5095 29.7356C16.859 30.01 17.2366 30.1852 17.6426 30.2607C18.0483 30.3369 18.4403 30.3779 18.8178 30.3833C19.1956 30.389 19.5084 30.369 19.7564 30.322L20.1454 30.2523C20.1454 30.6957 20.1481 31.2153 20.1539 31.8109C20.1595 32.4065 20.1624 32.7216 20.1624 32.7567Z" fill="white"/>
</svg>

<svg width="46" height="46" fill="none" xmlns="http://www.w3.org/2000/svg"><path fill="#ADADB9" d="M.23.51h45.03v45.03H.23z"/><path d="M20.16 32.76a.7.7 0 0 1-.22.52c2.42.05 7.18.12 6.9 0-.28-.11-.27-.4-.23-.52v-3.7c0-1.13-.3-1.96-.88-2.49.64-.07 1.22-.17 1.73-.31a6.79 6.79 0 0 0 1.59-.69c.55-.31 1-.7 1.37-1.16a5.5 5.5 0 0 0 .9-1.84c.23-.76.34-1.64.34-2.63 0-1.42-.44-2.62-1.33-3.61a4.82 4.82 0 0 0-.14-3.58c-.31-.1-.77-.04-1.37.2-.6.23-1.12.49-1.55.77l-.65.42a11.62 11.62 0 0 0-6.5 0A10.01 10.01 0 0 0 18 12.99c-.63-.26-1.12-.34-1.45-.24a4.86 4.86 0 0 0-.11 3.58c-.9.99-1.34 2.2-1.34 3.6 0 1 .11 1.87.35 2.63a4.6 4.6 0 0 0 2.25 3.01c.54.32 1.07.55 1.58.69.52.14 1.1.24 1.74.31a2.88 2.88 0 0 0-.83 1.8c-.24.12-.5.21-.76.27-.27.06-.6.09-.97.09s-.74-.13-1.1-.38a3.05 3.05 0 0 1-.94-1.1 2.79 2.79 0 0 0-.82-.9 2.43 2.43 0 0 0-.84-.42l-.34-.06c-.23 0-.4.03-.49.08-.09.05-.12.12-.08.2.03.09.08.17.15.25.07.08.14.15.22.2l.12.1c.25.11.5.34.73.66.25.33.42.63.54.9l.17.4c.14.44.39.8.74 1.08.35.27.73.45 1.13.52a6.9 6.9 0 0 0 2.12.06l.39-.07a162.06 162.06 0 0 0 .01 2.5z" fill="#fff"/></svg>
